img/leaf_icon.svg

<svg width="16" height="27" viewBox="0 0 16 27" fill="none" xmlns="http://www.w3.org/2000/svg">
<path d="M15.9923 15.5968C15.6436 7.93944 8.86521 0.523922 8.56309 0.201509C8.56309 0.201509 8.56309 0.201509 8.52435 0.201509L8.43139 0.0967241L8.33068 0.0322414H7.89686L7.74967 0H7.71094L7.5715 0.0967241L7.48628 0.169267C7.48628 0.169267 7.48628 0.169267 7.44755 0.169267C7.14543 0.523922 0.366988 7.9475 0.00288906 15.5968C-0.000963019 15.6531 -0.000963019 15.7097 0.00288906 15.766C0.00288906 16.0562 0.00288906 16.3464 0.00288906 16.6446C0.297267 24.9468 7.74967 26.978 7.81165 26.9941H8.00532C8.06965 27.002 8.13465 27.002 8.19899 26.9941C8.26871 26.9941 15.7134 24.9065 16 16.6446C16 16.3464 16 16.0562 16 15.766C16 15.7096 15.9923 15.6532 15.9923 15.5968ZM2.04804 12.7676C3.59539 14.1514 5.34488 15.2697 7.23064 16.0804V19.7478C5.33268 18.7725 2.41214 17.0396 1.55225 15.5162C1.62201 14.586 1.7803 13.6653 2.0248 12.7676H2.04804ZM3.5974 8.65681C4.61064 9.75802 5.85378 10.6019 7.23064 11.1233V14.2991C5.49975 13.5389 3.92267 12.445 2.58257 11.0749C2.87727 10.2498 3.21608 9.44254 3.5974 8.65681ZM13.4436 11.0749C12.1041 12.4457 10.5268 13.5398 8.79549 14.2991V11.1233C10.1612 10.5976 11.3934 9.75392 12.3977 8.65681C12.7885 9.43133 13.1377 10.2278 13.4436 11.0427V11.0749ZM8.79549 9.41448V2.96621C9.83084 4.28734 10.7757 5.68253 11.6231 7.14146C10.8759 8.12987 9.8968 8.90154 8.78 9.38224L8.79549 9.41448ZM8.79549 19.764V16.0804C10.6884 15.2769 12.4458 14.164 14.0013 12.7837C14.2386 13.6848 14.3891 14.6082 14.4506 15.5403C13.5985 17.0396 10.678 18.7645 8.78 19.7317L8.79549 19.764ZM7.24613 9.41448C6.12421 8.92764 5.14411 8.14406 4.40306 7.14146C5.24891 5.66868 6.19379 4.25998 7.23064 2.9259L7.24613 9.41448ZM1.71493 18.0632C3.40921 19.4484 5.26189 20.6099 7.23064 21.5211V25.0677C5.82223 24.4723 4.57958 23.5193 3.6161 22.2958C2.65263 21.0722 1.99902 19.6171 1.71493 18.0632ZM8.78 25.0757V21.5131C10.7504 20.6084 12.6035 19.4493 14.2957 18.0632C14.0237 19.623 13.3747 21.0851 12.4097 22.3119C11.4448 23.5387 10.1957 24.4898 8.78 25.0757Z" fill="#323232"/>
</svg>

<svg width="16" height="27" fill="none" xmlns="http://www.w3.org/2000/svg"><path d="M16 15.6C15.63 7.94 8.86.52 8.55.2h-.04L8.43.1l-.1-.07H7.9L7.75 0h-.04l-.14.1-.08.07h-.04C7.15.52.37 7.95 0 15.6v1.04C.3 24.94 7.75 26.98 7.81 27h.2a.8.8 0 00.19 0c.07 0 7.51-2.08 7.8-10.35v-.87-.17zM2.04 12.77c1.55 1.38 3.3 2.5 5.18 3.31v3.67c-1.9-.98-4.82-2.71-5.68-4.23.07-.93.23-1.85.47-2.75h.03zM3.6 8.66a9.53 9.53 0 003.63 2.46v3.18a14.87 14.87 0 01-4.65-3.23c.3-.82.64-1.63 1.02-2.41zm9.84 2.41A14.83 14.83 0 018.8 14.3v-3.18a9.53 9.53 0 003.6-2.46c.39.77.74 1.57 1.04 2.38v.03zM8.8 9.41V2.97a36.44 36.44 0 012.82 4.17 7.08 7.08 0 01-2.84 2.24l.02.03zm0 10.35v-3.68c1.89-.8 3.65-1.92 5.2-3.3.24.9.39 1.83.45 2.76-.85 1.5-3.77 3.22-5.67 4.2l.02.02zM7.25 9.41A7.01 7.01 0 014.4 7.14c.85-1.47 1.8-2.88 2.83-4.21l.02 6.48zM1.7 18.06a25.91 25.91 0 005.52 3.46v3.55a9.14 9.14 0 01-3.61-2.77 9.65 9.65 0 01-1.9-4.24zm7.07 7.02V21.5a25.5 25.5 0 005.52-3.45 9.52 9.52 0 01-1.89 4.25 9 9 0 01-3.63 2.77z" fill="#323232"/></svg>
